public/avatar/shoe/133.svg

<svg xmlns:xlink="http://www.w3.org/1999/xlink" height="38.3" width="36.05" xmlns="http://www.w3.org/2000/svg"><use height="18.3" transform="translate(11.45 11.7)" width="21.2" xlink:href="#a"/><defs><g id="a" fill-rule="evenodd"><path d="M7.3 1.75Q10.5 4.7 7 9.5l-1.95 2.25Q3.2 14.4-.8 15.05q-3.75.45-7.2-.75l-2.7-1.35q-1-.35-1.3-1.1l-.15-.75q-.55-1.25.35-2.8l1-1.25L-3 3.3Q5.25-.05 7.3 1.75" fill="#441e04" transform="translate(12.35 3.15)"/><path d="M7.15 2.45Q9.5 4.7 6.4 8.85q-1.4 1-1.95 2.45Q3 13.5-.5 14.25q-3.45.75-7.3-.45l-3.1-1.3q-.9-.85-.65-2.7l.35-1.7 8.4-3.6q8.65-3.35 9.95-2.05" fill="#f87006" transform="translate(12.35 3.15)"/><path d="M.8 12.8q-4.4 1.35-8.6-.05-5-1.15-3.35-4.6l.15 1.5q.65 1.7 3.1 2.55 5.6 1.6 10.1-.55L4 9.55l1.3-1.9q2.45-1.8 2.7-3.8l-.1 1.3q-.5 1.6-2.2 2.8l-1.1 1.7Q3.85 11.7.8 12.8" fill="#441e04" transform="translate(12.35 3.15)"/><path d="M4.05 9.6q-1.4 2.15-3.2 2.6-3.35 1.45-8.8-.05-3.35-1-3.3-3.25l.85-2.25V6.6l7.95-2.75q8.35-2.6 9.6-1.4Q9.7 4.8 5.3 7.7L4.05 9.6" fill="#f8c606" transform="translate(12.35 3.15)"/><path d="M1.15-3.15Q5.9-2.5 6.4-1q2.15 4.6-.3 7.25l-1.65 1.2q-2.25 4.5-6.05 4.4l-3.85-.1-1.35-.8q-3.5-.1-4.2-2.3-.3-.95.75-2.5l3.2-3.7 1.5-3Q-4.25-2.7-1.4-3.1l2.55-.05" fill="#21100a" transform="translate(12.35 3.15)"/><path d="m-2-2.15 1.7-.1q4.7-.3 6.3 2.6.85 1.5.75 3Q6.3 4.65 5 5.75l-1.45 1.5q-.9 2.5-3.85 3.45l-4.9.15-.85-1.1q-1 .65-2.25.3-1.7-.15-1.75-1.7l.3-1.5 2.25-2.6q.9-.8 1.4-1.95l.8-1.8Q-4.05-1.6-2-2.15" fill="#c98036" transform="translate(12.35 3.15)"/><path d="m-6.45 9.15-.3-1.1Q-7 6.95-6.6 6.8l.55.55-.4 1.8" fill="#21100a" transform="translate(12.35 3.15)"/><path d="M3.3-1.9q1.9.7 2.55 1.95l-5.6-.1Q-5.1-.4-3.5-1.55l1.3-.55 3.8-.3 1.7.5m.25 9Q.7 12-4 10.85q-.6-.15-.5-1.2l.2-1q1.5 1.25 4.2 0-.35.95.1-.2l2.35-2.1q-.55.1-.25-.05l.5-.15-.25.2.25-.05Q3.85 6 6.4 1.7q.65.95-.15 2.4l-2.7 3" fill="#965112" transform="translate(12.35 3.15)"/><path d="M.6 7.35q1.05-1.3 3.15-1.95l.95-.45L1.65 8.4l-1.7 1.05-.7-.1.75-.9.6-1.1m-7.35.6.35 1.9-3.1-.2-.7-.9q1.35.8 3.45-.8" fill="#965112" transform="translate(12.35 3.15)"/><path d="M2.2 10.55-1.05 8.1q-3.55-2.15-5-.55l-1.35-1.1q-1.6-1.1-2.55-.7V4.7q.2-1.05.9-1.1l1.2-.1Q-6.4 3.6-5 4.65l2.85-.45Q1.3 4.55 4 8.45q-.25 1.6-1.8 2.1" fill="#441e04" transform="translate(12.35 3.15)"/><path d="M2.25 10.25Q1.1 8.9-.5 7.8-3.7 5.65-6 7.05q-.5-.55-1.3-1-1.5-.95-2.4-.6l1.15-1.6 1.35.1q1.45.3 2 1.05l2.9-.3q3.4.35 5.9 3.75.1 1.35-1.35 1.8" fill="#f8c606" transform="translate(12.35 3.15)"/><path d="m-9.95 5.6.85.1-.6.45-.25-.55" fill="#441e04" transform="translate(12.35 3.15)"/><path d="M3.55 8.6Q3.3 9.9 2.2 10.05q-3.3-2.95-4.7-3.5 3.3 1.1 4.7.3L3.55 8.6M-5.2 4.95l-.8 2-1.5-1q-.45-.3-.9-.4l1.4.05q.35.55 1.8-.65" fill="#f87006" transform="translate(12.35 3.15)"/><path d="M-6.3 4.85q-1.2-.7-2.2-.45l-.8.4.15-.3.85-.45q1.4-.1 2 .8m1.5.55 1.1-.4 2.35-.05.4.5q-1.85-.7-3.85-.05" fill="#fff" transform="translate(12.35 3.15)"/></g></defs></svg>

<?xml version="1.0" encoding="UTF-8" standalone="no"?>
<svg xmlns:xlink="http://www.w3.org/1999/xlink" height="38.3px" width="36.05px" xmlns="http://www.w3.org/2000/svg">
  <g transform="matrix(1.0, 0.0, 0.0, 1.0, 23.8, 14.85)">
    <use height="18.3" transform="matrix(1.0, 0.0, 0.0, 1.0, -12.35, -3.15)" width="21.2" xlink:href="#shape0"/>
  </g>
  <defs>
    <g id="shape0" transform="matrix(1.0, 0.0, 0.0, 1.0, 12.35, 3.15)">
      <path d="M7.3 1.75 Q10.5 4.7 7.0 9.5 L5.05 11.75 Q3.2 14.4 -0.8 15.05 -4.55 15.5 -8.0 14.3 L-10.7 12.95 Q-11.7 12.6 -12.0 11.85 L-12.15 11.1 Q-12.7 9.85 -11.8 8.3 L-10.8 7.05 -3.0 3.3 Q5.25 -0.05 7.3 1.75" fill="#441e04" fill-rule="evenodd" stroke="none"/>
      <path d="M7.15 2.45 Q9.5 4.7 6.4 8.85 5.0 9.85 4.45 11.3 3.0 13.5 -0.5 14.25 -3.95 15.0 -7.8 13.8 L-10.9 12.5 Q-11.8 11.65 -11.55 9.8 L-11.2 8.1 -2.8 4.5 Q5.85 1.15 7.15 2.45" fill="#f87006" fill-rule="evenodd" stroke="none"/>
      <path d="M0.8 12.8 Q-3.6 14.15 -7.8 12.75 -12.8 11.6 -11.15 8.15 L-11.0 9.65 Q-10.35 11.35 -7.9 12.2 -2.3 13.8 2.2 11.65 L4.0 9.55 5.3 7.65 Q7.75 5.85 8.0 3.85 L7.9 5.15 Q7.4 6.75 5.7 7.95 L4.6 9.65 Q3.85 11.7 0.8 12.8" fill="#441e04" fill-rule="evenodd" stroke="none"/>
      <path d="M4.05 9.6 Q2.65 11.75 0.85 12.2 -2.5 13.65 -7.95 12.15 -11.3 11.15 -11.25 8.9 L-10.4 6.65 -10.4 6.6 -2.45 3.85 Q5.9 1.25 7.15 2.45 9.7 4.8 5.3 7.7 L4.05 9.6" fill="#f8c606" fill-rule="evenodd" stroke="none"/>
      <path d="M1.15 -3.15 Q5.9 -2.5 6.4 -1.0 8.55 3.6 6.1 6.25 L4.45 7.45 Q2.2 11.95 -1.6 11.85 L-5.45 11.75 -6.8 10.95 Q-10.3 10.85 -11.0 8.65 -11.3 7.7 -10.25 6.15 L-7.05 2.45 -5.55 -0.55 Q-4.25 -2.7 -1.4 -3.1 L1.15 -3.15" fill="#21100a" fill-rule="evenodd" stroke="none"/>
      <path d="M-2.0 -2.15 L-0.3 -2.25 Q4.4 -2.55 6.0 0.35 6.85 1.85 6.75 3.35 6.3 4.65 5.0 5.75 L3.55 7.25 Q2.65 9.75 -0.3 10.7 L-5.2 10.85 -6.05 9.75 Q-7.05 10.4 -8.3 10.05 -10.0 9.9 -10.05 8.35 L-9.75 6.85 -7.5 4.25 Q-6.6 3.45 -6.1 2.3 L-5.3 0.5 Q-4.05 -1.6 -2.0 -2.15" fill="#c98036" fill-rule="evenodd" stroke="none"/>
      <path d="M-6.45 9.15 L-6.75 8.05 Q-7.0 6.95 -6.6 6.8 L-6.05 7.35 -6.45 9.15" fill="#21100a" fill-rule="evenodd" stroke="none"/>
      <path d="M3.3 -1.9 Q5.2 -1.2 5.85 0.05 L0.25 -0.05 Q-5.1 -0.4 -3.5 -1.55 L-2.2 -2.1 1.6 -2.4 3.3 -1.9" fill="#965112" fill-rule="evenodd" stroke="none"/>
      <path d="M3.55 7.1 Q0.7 12.0 -4.0 10.85 -4.6 10.7 -4.5 9.65 L-4.3 8.65 Q-2.8 9.9 -0.1 8.65 -0.45 9.6 0.0 8.45 L2.35 6.35 Q1.8 6.45 2.1 6.3 L2.6 6.15 2.35 6.35 2.6 6.3 Q3.85 6.0 6.4 1.7 7.05 2.65 6.25 4.1 L3.55 7.1" fill="#965112" fill-rule="evenodd" stroke="none"/>
      <path d="M0.6 7.35 Q1.65 6.05 3.75 5.4 L4.7 4.95 1.65 8.4 -0.05 9.45 -0.75 9.35 0.0 8.45 0.6 7.35" fill="#965112" fill-rule="evenodd" stroke="none"/>
      <path d="M-6.75 7.95 L-6.4 9.85 -9.5 9.65 -10.2 8.75 Q-8.85 9.55 -6.75 7.95" fill="#965112" fill-rule="evenodd" stroke="none"/>
      <path d="M2.2 10.55 L-1.05 8.1 Q-4.6 5.95 -6.05 7.55 L-7.4 6.45 Q-9.0 5.35 -9.95 5.75 L-9.95 4.7 Q-9.75 3.65 -9.05 3.6 L-7.85 3.5 Q-6.4 3.6 -5.0 4.65 L-2.15 4.2 Q1.3 4.55 4.0 8.45 3.75 10.05 2.2 10.55" fill="#441e04" fill-rule="evenodd" stroke="none"/>
      <path d="M2.25 10.25 Q1.1 8.9 -0.5 7.8 -3.7 5.65 -6.0 7.05 -6.5 6.5 -7.3 6.05 -8.8 5.1 -9.7 5.45 L-8.55 3.85 -7.2 3.95 Q-5.75 4.25 -5.2 5.0 L-2.3 4.7 Q1.1 5.05 3.6 8.45 3.7 9.8 2.25 10.25" fill="#f8c606" fill-rule="evenodd" stroke="none"/>
      <path d="M-9.95 5.6 L-9.1 5.7 -9.7 6.15 -9.95 5.6" fill="#441e04" fill-rule="evenodd" stroke="none"/>
      <path d="M3.55 8.6 Q3.3 9.9 2.2 10.05 -1.1 7.1 -2.5 6.55 0.8 7.65 2.2 6.85 L3.55 8.6" fill="#f87006" fill-rule="evenodd" stroke="none"/>
      <path d="M-5.2 4.95 L-6.0 6.95 -7.5 5.95 Q-7.95 5.65 -8.4 5.55 L-7.0 5.6 Q-6.65 6.15 -5.2 4.95" fill="#f87006" fill-rule="evenodd" stroke="none"/>
      <path d="M-6.3 4.85 Q-7.5 4.15 -8.5 4.4 L-9.3 4.8 -9.15 4.5 -8.3 4.05 Q-6.9 3.95 -6.3 4.85" fill="#ffffff" fill-rule="evenodd" stroke="none"/>
      <path d="M-4.8 5.4 L-3.7 5.0 -1.35 4.95 -0.95 5.45 Q-2.8 4.75 -4.8 5.4" fill="#ffffff" fill-rule="evenodd" stroke="none"/>
    </g>
  </defs>
</svg>
